web/packages/design/src/ResourceIcon/assets/onepassword-light.svg

<svg width="72" height="72" viewBox="0 0 72 72" fill="none" xmlns="http://www.w3.org/2000/svg">
<g clip-path="url(#clip0_15934_6690)">
<path fill-rule="evenodd" clip-rule="evenodd" d="M72 36C72 16.118 55.8817 0 35.9999 0C16.118 0 0 16.118 0 36C0 55.883 16.118 72 35.9999 72C55.8817 72 72 55.883 72 36ZM29.4475 16C29.1645 16.5555 29.1645 17.2826 29.1645 18.7369V26.9793C29.1645 27.3426 29.1645 27.5243 29.2104 27.6922C29.251 27.841 29.3178 27.9813 29.4077 28.1067C29.5091 28.2482 29.65 28.3627 29.932 28.5917L32.017 30.2854C32.3568 30.5615 32.5267 30.6995 32.5884 30.8657C32.6425 31.0115 32.6425 31.1718 32.5884 31.3176C32.5267 31.4837 32.3568 31.6218 32.017 31.8978L29.932 33.5916C29.6501 33.8206 29.5091 33.9351 29.4077 34.0766C29.3178 34.2019 29.251 34.3423 29.2104 34.4911C29.1645 34.6591 29.1645 34.8407 29.1645 35.204V53.263C29.1645 54.7171 29.1645 55.4442 29.4475 55.9996C29.6965 56.4886 30.0937 56.8855 30.5823 57.1344C31.1378 57.4177 31.865 57.4177 33.3192 57.4177H38.6806C40.1349 57.4177 40.862 57.4177 41.4174 57.1344C41.9061 56.8855 42.3032 56.4886 42.5524 55.9996C42.8355 55.4442 42.8355 54.7171 42.8355 53.263V45.0203C42.8355 44.657 42.8355 44.4753 42.7895 44.3078C42.7489 44.1589 42.6821 44.0182 42.5922 43.893C42.4906 43.7516 42.3497 43.6371 42.0678 43.4081L39.9829 41.7142C39.6431 41.4383 39.4731 41.3002 39.4114 41.134C39.3573 40.9883 39.3573 40.828 39.4114 40.6822C39.4731 40.516 39.643 40.378 39.9829 40.1019L42.0678 38.4082C42.3497 38.1792 42.4906 38.0646 42.5922 37.9231C42.6821 37.7978 42.7489 37.6574 42.7895 37.5087C42.8355 37.3407 42.8355 37.1591 42.8355 36.7958V18.7369C42.8355 17.2826 42.8355 16.5555 42.5524 16C42.3032 15.5114 41.9061 15.1141 41.4174 14.8652C40.862 14.5822 40.1349 14.5822 38.6806 14.5822H33.3192C31.865 14.5822 31.1378 14.5822 30.5823 14.8652C30.0937 15.1141 29.6965 15.5114 29.4475 16Z" fill="black"/>
</g>
<defs>
<clipPath id="clip0_15934_6690">
<rect width="72" height="72" fill="white"/>
</clipPath>
</defs>
</svg>

<svg xmlns="http://www.w3.org/2000/svg" width="72" height="72" fill="none" viewBox="0 0 72 72"><g clip-path="url(#a)"><path fill="#000" fill-rule="evenodd" d="M72 36C72 16.118 55.882 0 36 0S0 16.118 0 36s16.118 36 36 36 36-16.117 36-36M29.448 16c-.284.555-.284 1.283-.284 2.737v8.242c0 .364 0 .545.046.713q.062.225.198.415c.101.141.242.256.524.485l2.085 1.693c.34.276.51.415.571.58a.65.65 0 0 1 0 .453c-.061.166-.231.304-.571.58l-2.085 1.694c-.282.229-.423.343-.524.485q-.136.189-.198.414c-.046.168-.046.35-.046.713v18.059c0 1.454 0 2.181.284 2.737.248.489.646.886 1.134 1.134.556.284 1.283.284 2.737.284h5.362c1.454 0 2.181 0 2.736-.284A2.6 2.6 0 0 0 42.552 56c.284-.556.284-1.283.284-2.737V45.02c0-.363 0-.545-.047-.712a1.3 1.3 0 0 0-.197-.415c-.101-.141-.242-.256-.524-.485l-2.085-1.694c-.34-.276-.51-.414-.572-.58a.65.65 0 0 1 0-.452c.062-.166.232-.304.572-.58l2.085-1.694c.282-.229.423-.343.524-.485.09-.125.157-.266.197-.414.047-.168.047-.35.047-.713v-18.06c0-1.453 0-2.18-.284-2.736a2.6 2.6 0 0 0-1.135-1.135c-.555-.283-1.282-.283-2.736-.283h-5.362c-1.454 0-2.181 0-2.737.283A2.6 2.6 0 0 0 29.448 16" clip-rule="evenodd"/></g><defs><clipPath id="a"><path fill="#fff" d="M0 0h72v72H0z"/></clipPath></defs></svg>
